X: 10961
T: THE HON. MISS DRUMMOND OF PERTH -- Strathspey
R: strathspey
B: K\"ohler's Violin Repository, v.1, 1885 p.96 #1
F: http://www.archive.org/details/klersviolinrepos01edin
Z: 2012 John Chambers <jc:trillian.mit.edu>
M: C|
L: 1/16
K: Em
uB,2 |\
E6F2 EEE2 (E2F2) | (.A3.B)(A3F) (.D3.E)(F3D) | B,E3(E3D) (E3F)Ge3 | dB3(A2F2) B4E2 :|
B2 |\
e6f2 eee2 (e3d) | (.B3.d)(A3F) (.D3.E)(F3D) | E(e3"^>"e3f) eee2 (e3d) | Bd3 (F3A) B4 E2B2 |
e6f2 eee2 (e3d) | B3d A3d (.D3.E)(F3D) | B,E3(E3F) (E3F)Ge3 | dB3 (A2F2) "_Segue Reel."B4E2 "^D.C.":|

%%sep 2 1 500

